X: 14080
T: Fremont Center
R: reel
M: 4/4
K: Amixolydian
e4 A3G|EGAA e3c|d2dc dedc|ABAG EGAA|
e4 A2AG|EGAA e3c|~d2dc d3c|ABAG EGAA|
e4 A2AG|EGAA e3c|d2dc dedc|ABAG EGAA|
e4 A4|e3c d3c|A2BA BcAG|EGAE GADC||
|:A,2B,A, CECE|DFGG- GFDC|A,2B,A, CA,A,A|eAdA cAEC|
A,2B,A, CECE|DFGG- GFDF|GAGF DFGA|1 eAdA cAEC:|2 eAdA cAcd||

